X:644
T:Winnifred
C:O'Carolan
B:O'Neill's 644
Z: 1997 by John Chambers <jc@trillian.mit.edu>
N:"Moderate"
M:C
L:1/8
K:Dm
DE \
|G2GA GEDE|G2GA GEDE|A2AB c2EF|G3E D2EG|
|A2AB c2A2|d2de f2ed|cAGE CDEC|D4 D2||
AB \
|c2cd cAGA|d2de f2ed|dcAG E2DE|CcGE C2DE|
|F2EF G2FG|Adede f2ed|cAGE CDEC|D4 D2|]
